X: 29
T: Cliffs Of Moher, The
Z: chansherly212
S: https://thesession.org/tunes/12#setting53959
R: jig
M: 6/8
L: 1/8
K: Ador
|:"Am"a3 a2g|"Am"eaa ged|"G"B2G DGG|"G"BGB dBd|
"Am"eaa a2g|"Am"eaa ged| "G"B2G DGG|"Em"BAA "Am"ABd:|
|:"Am"ege dBA|"Am"ege d2c|"G"B2G DGG|"G"BGB dBd|
"F"ege dBA|"F"(3efg e d2c|"G"B2G DGG|1"Em"BAA "Am"ABd:|2 "Em"BAA "Am"A3||

%-------------------- TUNE SEPARATOR --------------------%

